X: 76
T: Preludium Es-dur
C: Maria Szymanowska
%%abc-version 2.0
%%abcx-abcm2ps-target-version 5.9.1 (29 Sep 2008)
%%abc-creator hum2abc beta
%%abcx-conversion-date 2021/10/04 07:38:40
%%abc-edited-by Leszek Kubiak
%%abc-edited-by Marcin Jachim
%%abcx-initial-encoding-date 2020-06-15
%%humdrum-veritas 3488958687
%%humdrum-veritas-data 3737691094
%%linebreak <none>
%%barnumbers 0
L: 1/16
M: C
N: Derived from pl-kozmzk--mzk-m-31--002_szymanowska-maria--preludium-es-dur.krn
%%staves {1 2}
V: 1 clef=treble
V: 2 clef=bass
K: Eb
[V:1] z2 b'a' g'f'!trill!e'd' c'b!trill!ag fe!trill!dc | 
[V:2] [E,,2E,2][K:clef=treble] g'f' e'd'!accent!c'b ag!accent!fe dc!accent!BA | 
[V:1] BA!trill!GF ED!trill!CB, A,G,!trill!F,E, D,C,!trill!B,,=A,, | 
[V:2] G!accent!FED[K:clef=bass] CB,!accent!A,G, F,E,D,C, B,,A,,G,,^F,, | 
[V:1] B,,2 GA Bcde f^fgd =fe=Bd | 
[V:2] G,,2 z2z4z8 | 
[V:1] cG_BA GFd[_Gc] [=G2B2] z2 !fermata![A,2D2] z2 | 
[V:2] z4z2 z !accent!=A, B,2 z2 !fermata!B,,2 z2 | 
[V:1] GB!trill!AG ABcd efga =abc'b | 
[V:2] !wedge!E,,2!wedge![E,2G,2] !wedge!B,,2!wedge![E,2G,2] G,,2!wedge![E,2G,2] B,,2!wedge![E,2G,2] | 
[V:1] !accent!!trill!_agfe !accent!!trill!dcB=A !accent!!trill!_AGFE !accent!!trill!DCB,D | 
[V:2] B,,,2 [F,2A,2]F,,2[F,2A,2] B,,2[F,2A,2]F,,2[F,2A,2] | 
[V:1] EB!trill!AG ABcd efga =ab!accent!g'3/e'/ | 
[V:2] E,,2[E,2G,2]B,,2[E,2G,2] G,,2[E,2G,2]B,,2[E,2G,2] | 
[V:1] !trill!d'c'b=a !trill!_agfe !trill!dc_B=A !trill!_AGFB | 
[V:2] B,,,2 [F,2A,2]F,,2[F,2A,2] B,,2[F,2A,2]F,,2[D,2A,2] | 
[V:1] !trill!G!accent!FEB !accent!!trill!AGFB !accent!!trill!GFEB !accent!!trill!GF=Ec | 
[V:2] E,,2[E,2G,2] D,,2[A,2B,2] E,,2[G,2B,2] =E,,2[G,2C2] | 
[V:1] !trill!AGFc !trill!BAGc !trill!AGFc !trill!AGF_d | 
[V:2] F,,2[A,2C2] =E,,2[B,2C2] F,,2[A,2C2] F,,2[A,2_D2] | 
[V:1] !trill!BAGe !trill!cBAf !trill!_dcBg !trill!edca | 
[V:2] G,,2[B,2E2] A,,2[C2F2] B,,2[_D2G2] C,2[E2A2] | 
[V:1] =egf_d c_edB =AcB=E GF_E_D | 
[V:2] !wedge![_D2F2]!accent!_D,,2z4!wedge![D2F2]!accent!D,,2z4 | 
[V:1] C!accent!f'2e' !trill!_d'c'!trill!ba !trill!gf!trill!e_d !trill!cB!trill!AG | 
[V:2] E,,2[E,2A,2C2] [E,2A,2C2][E,2A,2C2] E,,2[E,2B,2_D2] [E,2B,2D2][E,2B,2D2] | 
[V:1] Ae!trill!_dc _defg abc'_e' =d'e'f'e' | 
[V:2] A,,2[A,2C2] E,2[A,2C2] C,2[A,2C2] E,2[A,2C2] | 
[V:1] !trill!_d'c'ba !trill!gfe=d !trill!_dcBA !trill!GFEG | 
[V:2] E,,2[F,2_D2] B,,2[G,2D2] E,2[G,2D2] B,,2[G,2D2] | 
[V:1] Ae!trill!_dc defg abc'd' =d'e'c''a' | 
[V:2] A,,2[A,2C2]E,2[A,2C2] C,2[A,2C2]E,2[A,2C2] | 
[V:1] !trill!g'f'e'=d' !trill!_d'c'ba !trill!gfe=d !trill!_dcBe | 
[V:2] E,,2[G,2_D2] B,,2[G,2D2] E,2[G,2D2] B,,2[G,2D2] | 
[V:1] cf!trill!ec' de!trill!_db c_d!trill!ca =Bc!trill!_B_g | 
[V:2] A,,2[K:clef=treble] !accent!=A2B2!accent!G2 _A2!accent!F2G2!accent!=E2 | 
[V:1] =AB!trill!_Af GA!trill!Ge ^FG!trill!=Fd =EF!trill!_Ec | 
[V:2] F2!accent!D2_E2!accent!C2 D2!accent!=B,2C2!accent!=A,2 | 
[V:1] DB!trill!Fd Bf!trill!db Ge!trill!Bg eb!trill!ge' | 
[V:2] B,2[K:clef=bass][_A,4B,4][A,2B,2] [G,2B,2][G,4B,4][G,2B,2] | 
[V:1] =bc'ga =efcf [G2e2] z2 [_A,2D2] !fermata!z2 | 
[V:2] A,2A,4=A,2 _B,2 z2 [B,,2F,2] !fermata!z2 | 
[V:1] GB!trill!AG ABcd efga =abc'b | 
[V:2] E,,2[E,2G,2] B,,2[E,2G,2] G,,2[E,2G,2] B,,2[E,2G,2] | 
[V:1] fa'df' Bd'Ab FaDf B,dB,B | 
[V:2] B,,,2 [F,2A,2]F,,2[F,2A,2] B,,2[F,2A,2]F,,2[F,2A,2] | 
[V:1] GB!trill!AG ABcd efga =abg'e' | 
[V:2] E,,2[E,2G,2] B,,2[E,2G,2] G,,2[E,2G,2] B,,2[E,2G,2] | 
[V:1] _a_c''fa' df'_cd' A_c'Fa DfB,d | 
[V:2] B,,,2 [F,2A,2]F,,2[F,2A,2] B,,2[F,2A,2]F,,2[F,2A,2] | 
[V:1] [Ge]B!trill!AG AB[Ad]B [Ge] b!trill!ag ab[ad']b | 
[V:2] [E,2G,2] z2 [B,2F2][B,2F2] E2 z2[K:clef=treble] [B2f2][B2f2] | 
[V:1] e'2 =bg c'2=af _b2ge _a2^fd & g2 !accent!f2=e2!accent!_e2 d2!accent!_d2c2!accent!c2 | 
[V:2] !wedge!e2 G2c2 F2B2 E2_A2 D2 | 
[V:1] g2=ec f2dB _e2[c2e2]e2e2 & =B2!accent!_B2=A2!accent!_A2 G2_G2[G2B2][G2=A2] | 
[V:2] G2 C2F2 B,2D2[K:clef=bass] [=A,,2=A,2][B,,2B,2][_C,2_C2] | 
[V:1] [=G2B2e2] b'a' g'f'!trill!e'd' c'b!trill!ag fe!trill!dc | 
[V:2] [B,,2B,2][K:clef=treble] g'f' e'd'c'b agfe dcBA | 
[V:1] BA!trill!GF ED!trill!CB, A,G,!trill!F,E, D,C,!trill!B,,=A,, | 
[V:2] GFED[K:clef=bass] CB,A,G, F,E,D,C, B,,A,,G,,^F,, | 
[V:1] B,,2 GA Bcde f^fgd =fe=Bd | 
[V:2] G,,2 z2z4z8 | 
[V:1] cG_BA GFd[_Gc] [=G2B2] x2 [A,2D2] !fermata!z2 | 
[V:2] z4z2 z !accent!=A, B,2 x2 B,,2 !fermata!z2 | 
[V:1] GB!trill!AG ABcd efga =abc'b | 
[V:2] !wedge!E,,2!wedge![E,2G,2] !wedge!B,,2!wedge![E,2G,2] G,,2!wedge![E,2G,2] B,,2!wedge![E,2G,2] | 
[V:1] !accent!!trill!_agfe !accent!!trill!dcB=A !accent!!trill!_AGFE !accent!!trill!DCB,D | 
[V:2] B,,,2 [F,2A,2]F,,2[F,2A,2] B,,2[F,2A,2] F,,2[F,2A,2] | 
[V:1] EB!trill!AG ABcd efga =abg'e' | 
[V:2] E,,2[E,2G,2] B,,2[E,2G,2] G,,2[E,2G,2] B,,2[E,2G,2] | 
[V:1] _a_c''fa' df'_cd' A_c'Fa DfB,d | 
[V:2] B,,,2 [F,2A,2]F,,2[F,2A,2] B,,2[F,2A,2]F,,2[F,2A,2] | 
[V:1] [Ge]B!trill!AG AB[Ad]B [Ge] b!trill!ag ab[ad']b | 
[V:2] [E,2G,2] z2 [B,2F2][B,2F2] E2 z2[K:clef=treble] [B2f2][B2f2] | 
[V:1] [ge'] B!trill!AG AB[Ad]B [Ge] B,!trill!A,G, A,B,[A,D]B, | 
[V:2] e2 z2[K:clef=bass] [B,2F2][B,2F2] E,2 z2 [B,,2F,2][B,,2F,2] | 
[V:1] [G,E]G,!trill!A,G, GG,!trill!A,G, EG,!trill!A,G, GG,!trill!A,G, | 
[V:2] E,,2E,2E,2E,2 E,,2E,2E,2E,2 | 
[V:1] !fermata![G,16B,16E16] |]  
[V:2] !fermata![E,,16E,16] |]  


